packages/core/src/svgs/tokens/mono/TRU.svg

<svg width="24" height="24" viewBox="0 0 24 24" fill="none" xmlns="http://www.w3.org/2000/svg">
<path fill-rule="evenodd" clip-rule="evenodd" d="M13.481 9.34026H10.2888L5.23635 18.219L2 16.3774L7.2822 7.09497C7.53774 6.6461 7.90754 6.27287 8.35405 6.01324C8.80056 5.75359 9.30786 5.61677 9.82442 5.6167H13.4804L13.481 9.34026ZM6.57365 5.6167H2.3181V9.87224C3.44675 9.87224 4.52916 9.42392 5.32723 8.62583C6.1253 7.82777 6.57365 6.74535 6.57365 5.6167ZM15.556 7.09764C15.8115 6.64788 16.1816 6.27387 16.6286 6.01371C17.0757 5.75357 17.5837 5.61658 18.1009 5.6167H22V9.34026H18.5647L14.2714 16.9024C14.0161 17.3521 13.6461 17.7261 13.1991 17.9862C12.7522 18.2464 12.2443 18.3834 11.7272 18.3834H7.63594V14.6598H11.2627L15.556 7.09764ZM19.8722 16.2556C20.4366 16.2556 20.9777 16.0315 21.3768 15.6324C21.7758 15.2334 22 14.6921 22 14.1278C22 13.5635 21.7758 13.0223 21.3768 12.6232C20.9777 12.2242 20.4366 12 19.8722 12C19.308 12 18.7667 12.2242 18.3677 12.6232C17.9687 13.0223 17.7445 13.5635 17.7445 14.1278C17.7445 14.6921 17.9687 15.2334 18.3677 15.6324C18.7667 16.0315 19.308 16.2556 19.8722 16.2556Z" fill="white"/>
</svg>

<svg xmlns="http://www.w3.org/2000/svg" width="24" height="24" fill="none" viewBox="0 0 24 24">
    <path fill="#fff" fill-rule="evenodd" d="M13.481 9.34h-3.192l-5.053 8.88L2 16.377l5.282-9.282a2.93 2.93 0 0 1 2.542-1.478h3.656zM6.574 5.617H2.318v4.255a4.255 4.255 0 0 0 4.256-4.255m8.982 1.48a2.93 2.93 0 0 1 2.545-1.48H22V9.34h-3.435l-4.294 7.562a2.92 2.92 0 0 1-2.544 1.481H7.636V14.66h3.627zm4.316 9.159a2.128 2.128 0 1 0 0-4.256 2.128 2.128 0 0 0 0 4.256" clip-rule="evenodd"/>
</svg>
